!!!OTL: Thueringen, holdes Land.
!!!OTL-incipit: THUERINGEN HOLDES LAND
!!!COM: K. W. Muellerhartung
!!!ARE: Europa, Mitteleuropa, Deutschland
!!!SCT: F0461
!!!TXL: @@DE
!!!YEM: Copyright 1995, estate of Helmut Schaffrath.
**kern	**text
*ICvox	*
*M3/4	*
*k[b-]	*
*F:	*
=1	=1
!LO:TX:a:t=In mäßigem Tempo.	!
!LO:TX:a:t=Für gemischten Chor.	!
{4cc/	1._Thü-
4f	-rin-
4g	-gen,
=2	=2
4.a	hol-
8b-/	-des
4g}	Land,
=3	=3
{4dd/	wo
4cc/	mei-
4g	-ne
=4	=4
4.b-/	Wie-
8a	-ge
4a}	ſland,
=5	=5
{4g	Früh-
4a	-ling
4bn/	iſt
=6	=6
4.cc/	ü-
8g	-ber-
4g}	-al
=7	=7
{8ee/L	Freu-
8ddJ	.
4cc/	-de
4bn/	und
=8	=8
2cc/	Luſt.
4r}	.
=9	=9
{4b-/	Lie-
8aL	-der
8gJ	.
8fL	ſtrömt
8eJ	.
=10	=10
4.cc/	fröh-
8b-/	-lich
4a}	aus,
=11	=11
{4cc/	flat-
8b-/L	-tert
8aJ	.
8gL	von
8f#J	.
=12	=12
4.dd/	Haus
8cc/	ʒu
4b-/}	Haus
=13	=13
{4ee/	ſucht
4dd/	ei-
4cc/	-ne
=14	=14
4ff/	Ru-
8ee/L	-he-
8ddJ	.
4cc/}	-ſtatt
=15	=15
{8cc/L	in
8b-J	.
4a	Liebchens
8gL	.
8aJ	.
=16	=16
2.b-/}	Bruſt,
=17	=17
{4b-/	ſucht
4ff/	ei-
8ee/L	-ne
8ddJ	.
=18	=18
4.cc/	Ru-
8b-/	-he-
4a}	-statt
=19	=19
{4a	in
8gL	Lieb-
8aJ	-chens
4b-/	.
=20	=20
2a/;	Bruſt
4r}	.
==	==
!!!AGN: Vaterlands -, Heimat - Lied
!!!ONB: ESAC (Essen Associative Code) Database: FINK
!!!AMT: simple triple
!!!AIN: vox
!!!EED: Helmut Schaffrath
!!!EEV: 1.0
!!Text: Veit
!!!GTL: Vaterlands- und Heimathslieder.
!!!source: Musikalischer Hausschatz der Deutschen. Eine Sammlung von über 1000 Liedern und Gesängen mit Singstimmen und Klavierbegleitung. Leipzig, Litterarisches Verlags-Haus.
!!!page: 288
!!!ENC: Anna Maria Matuszewska
!!!EEV: 2024/03/14
*-	*-
